-----BEGIN PGP PUBLIC KEY BLOCK-----
Comment: 7169 605F 62C7 5135 6D05  4A26 A821 E680 E5FA 6305
Comment: Thomas Wouters <thomas@python.org>
Comment: Thomas Wouters <thomas@xs4all.nl>
Comment: Thomas Wouters <twouters@google.com>

xsFNBFUAInYBEACrmKcXagNRlo1VjznrJZMMUh0rxUn2iK2wy9H5qrCo4EgMYahZ
ibBunSWB4RNeVQevzUm3eSyOixnt+BmGZbSYqKp8tJIXRRcnKhEtC62X+7NVMc7B
9uPu/aJ3HNqXrsQwBJUzZxzLMLg6obCyarhhHAYbWmfaafU4yNk3J4dGNKoZtHvz
bjnUtlsUAkCmuyt3MsUuSYz34BviRLSEZEKW6xNoyQmD9dUhQ5exBuTPjtmdTf+x
gOKpBluRkJ4TADGlWf42lIkaI+8DYRj1R8eQdLFwS7sDTu/MMPceKU7nTWOoj8HF
3xXRJ+bJbpOJXZFEzVKjXHKuMFkhKr562i0LD8pdl1+s+9LRovmAvGwggt04Drzb
AK437QoyjPKiTnFlg4tOeIuN0Y+GGk2hXOdH7fNw79B9Tq5ENxth8NsnKVlz1zpF
X+aV0zCvAjNWutAUpikqZT/ibpwmM+NJcz3pgzQOq+LfPFskyrv7zkVODEjH3SG3
s4ROvyoWfLPWmX92kJMOkvzyQObZmU2zWJgJbjYRApZiTfbfnH1tE+wxH4ZR5dji
FpEdUJn1yjpYp21Q10khIdsj6q9IvS3RDq0ygc5wfl5111byEsdP12y36lvPTclT
33VHBR1vxr+js9d8FI4wwt/o+7TmAO39DYhLrtn+ZgyRgIBYY65lhEaUtwARAQAB
zSJUaG9tYXMgV291dGVycyA8dGhvbWFzQHB5dGhvbi5vcmc+wsGWBBMBCgBBAhsD
BQsJCAcDBRUKCQgLBRYCAwEAAh4BAheAAhkBFiEEcWlgX2LHUTVtBUomqCHmgOX6
YwUFAmpzLCwFCRz317YACgkQqCHmgOX6YwVQNg/2Osb+sJVEoP+mVlVpRYZlRMfy
gUxwNLG9+CbLzmp/XSQrMMrsy0byL0SVZO0Y2e6bApMLXFfRb6moC/j5kQBsXLfI
AkJ4BVW1bEfzivc7mH65KFGgYtsnf5xDybc5cmpfvl6YDz4RdJQOEIn3qlVkgXyi
VZGCDMJvuUxc1l9LEv8yjGX+CfODvNwReNvuQn/yl9lFUJP+/HRIt0H4L5x7HxgC
2l2hoauew7+E7jyqgLyF0NaavbEV/mmJeqo4M8RfUK09GSf54uTjjIydlR+PATLZ
cG2DEXY+BkVZ/YW35Srotqp4hOkarqEn4pjfvp/GaiOKUOIQR+f70ZlgiY+Ku1/8
dN6y/u/tHjEsIM1ZOt7k6t8IYqxa0k8BUpwa+OXtYLaouaHx1P9D9ElKDwuWAOZ2
zhEgPtW/7Pp8DFsbkrHrtSzEsx8ojlCrIQxgxwuirXriG+Aqjoc4q/GWFl9GRkLX
z3s0WsDUehxXaksleL+/ITWy2zPHgkuEiEHI7+s+Xl7AGjI5DCNFqvQLw58TjUw5
Hkxno3hIYnFr5zrtA0Kldcz3OyEi8oz1bhRgfd+N8XLy9d8f8s0WaQwkVUcQxz1t
CxHhR+dt247ytnsHw7cHE8EmKv5HKuVoMhcpW8K0Cpc4BJcW32bXf6epHa01pbjC
zNfFSuDtdh+5gFVYUMLBlAQTAQoAPgIbAwULCQgHAwUVCgkICwUWAgMBAAIeAQIX
gBYhBHFpYF9ix1E1bQVKJqgh5oDl+mMFBQJg4GUCBQkVRkQLAAoJEKgh5oDl+mMF
BfEQAIgsjUkHOt8Gnva74SuokfdMmwZ6peFnnNC28W9RbtequgrmUGwvlMsPyu3J
dkqLCelNLCEepSGhID5+Uegkl5NGt5tm5s2zxxFKqi5M+JfPRmXymdKTYGXwjd5r
fvGeTu9C5s1EJ1kUnv2u6/l64D80nzVF0Qy/mkcQgoXLR18L2DpNW/B8tQmjXhYo
4LOImqGMrdtZoYyQwAI0UxYy6Y5CEHBHMePmS+DSnRm+CPruifcWGpvyQypBtTba
cZTwAmPlciHFFnKH0bPL/dGC/GmQ4pK/0ZevMnU7H69ScveUx9BC9F4FqO8laaUy
gA3PY3grXpspgb4b71pQkRo74YL5QmfiE8stZg5mZFc8QFk/CccrlCfB8I+BOu19
uAMi4qzMRKQDmxNRQBOhf0urN8NfBxjgmNuD5rw6UvpW0ekzntgDgCRqVWar6svu
xKTODjNSq1Q0yn8z+R0fkDsiO2ikmLdLDlEaoa5atX7PUOsrLBUGB0S2EDvzq4TM
eckekdqNZ3cifVsfVlnC/x2pZpaHEy/QAuFNC4wVSmFmj6bC7koCA+Lz1ht4LpeT
qmdizUxf1czpuXaOmXgXv/SzmtRhn/TDMTTFuwgfIoC3KBdFw/e/atcwA6WGbn2Y
E70xUM5ll4VyFAaVslx4NOW2ghZHbSgqhP28H/Sg2PXnBgySwsGUBBMBCgAnAhsD
BQkJZgGABQsJCAcDBRUKCQgLBRYCAwEAAh4BAheABQJVAD/AACEJEKgh5oDl+mMF
FiEEcWlgX2LHUTVtBUomqCHmgOX6YwWCOxAAnO0V5zkTdyN6UL74ueJOBa11kcT0
ekKeFyyxTQe130BspxKxUufvS+B9oVlDdHThh81JKMcmw5l3T2fa47eavF+bBv9o
qI929snlFSBUT6yk9llpXGfa8sEpK7Lng540I712GGQFZZe0pIY6ENoEvgiDcYyG
bKfLc3ClwRj0ezo0DyrJAPxVqIO2qWw9KazYOBTD4MUevnWmuxlsdfEaS4T8uPAy
5IqAIHIdIQg+BydBqAjmmEIstP6Vdu4NTDHKVLw0bmYlXxtm535SacfEdxDI2mGL
U/RcrUKEoShAn4bfct68L6bIDQEyrQQRQbm/e52f3dae0hWAEfd10G7PPQtXApFl
Wpw72Z3FfL8q/7wkNRAW9LCW1TIGiNXaCIZp39J7C2AQae7Imhom9mLpT2U+MeaG
Lhl3KEFEXzUI0mKUaD7FrFmjY36i7XOTS2omF9w9i3DLAuSwF4h9ovdMBiwj0mko
WQS6Zgnq9dUkKTtnOIADjlU1Fb2mfRTCKUuE3fPWcSr2j+jwayS87QKjEAP96dO+
fM9z/VjdAk0ogBO0y24yewBmbMOhr0g0+4ti9+K6NDU3Ez6keGKtHWnf0z2BRjXA
uyMrTzice4VaxNM568nyDO9/OP1hPEyGaUKnR9oCzIXFujYio1kKdPMQv14Wvkuk
aMGXP8aZsEqfa6rCwZQEEwEKACcFAlUAP5cCGwMFCQlmAYAFCwkIBwMFFQoJCAsF
FgIDAQACHgECF4AAIQkQqCHmgOX6YwUWIQRxaWBfYsdRNW0FSiaoIeaA5fpjBRL+
EACqDntPBmW7yqh/V7/YFMKpSIo9Dte6iRg5FMqk2tcIymX/KBkxbyNzpD6JUpoM
OEk32nPOHpkFlBI0zCvi/yd1zznx0h39a0Bsxn14b3q0igVPgz6ZJJb9ihtG68ie
4XJW+itnilPX39QMbuFFlEqh9PpfbY3O6ajL3u95PdZ667SOfL4fgCKJOhtKdFKx
mmMIxSzRPMyT6/X4l0yYRMZslmszgFhkVSag445TVY4+imHijCbPyHZr5XF2cYH3
mxb3/TiAoeV3zrehq4W/TU/feiRGiOKf5DYb3ujXguH4jEWOCGKmHP0w7PDK3BNQ
3DCtKZ8eO/ZUcS1Zzk/4YLQbKzv6XaOpRmb+PcfZW7jRHjuwu5223LmIxX+xWYEE
NF3K5WELvIkLR1a94Wy4S4j+ieN/WIqAgKQzZ81KPyAIEu2dsrqbdlRGgDB0p9Zl
H72/KurBprPGYL7vog6hIGdEWq90HbP7wJtUdZDhs5wBTIwNOTC0zWoCI2dGWfdo
Uh3MN1AZCHWPeniS51rxcT4gx1w5jdD0dJJDvppWuH7NvJchfZrwfmo3tOfRrsbY
+hOEEx7kI2Xtpd0UX6/vKhFji/K37ynfDGU6WL/WIyfZfzv0GUDdMnNulJIFN31p
Hvl+yGn1xdKqxRvaNr3cJrqZaQl8NhBQiW1MaCDieN24Ws0hVGhvbWFzIFdvdXRl
cnMgPHRob21hc0B4czRhbGwubmw+wsGUBBMBCgA+AhsDBQsJCAcDBRUKCQgLBRYC
AwEAAh4BAheAFiEEcWlgX2LHUTVtBUomqCHmgOX6YwUFAmpzLDkFCRz317YACgkQ
qCHmgOX6YwXMBA//TOwXRYrv9j17K23moluHN/C83MXwx9wBJo+01uTm504XXOUu
MTpq6JSs5cogQV61akOnHR0OYItbbEsL7VMaHQY6K3aibF8LrPqfhrVwD/QiXz/i
JuQNCSPaWgDuz80fJZZj9u4agkR2NlsFqeEboI4bC0FBe0Odw1Gfu4TzEK7Kk31/
+jtMNwPD9o6o3i/3drAhTi4qCqPB2aUjyl5brd2pBnMBNhwNmFJ4NdG+3FNai1Ks
KSCtEIge1dx1bQBYHtjy+Prn1yjhCx0s6h3rXpm63iAWZghW3pZODhyvqIbWFMd5
uwAuBTwUs41N7SRgJkF1VKAWLuk8S15lYBDLq7xnr7a/rybZv1yvBK0clAT5pe9+
Y6NmWUyZ/ow99ktPvSB6gpNDAScEueE7Y2UTuZO/OzKsL5pNE9QP8c93ohSNiM86
Uul9wfee4a4GiAIYrvYGYiONNuoRRzG5bwDkLyUuOW9mXP9FUyOnBXzt9BnMB1Xv
r1jE5P3MAuVxyHAaSkQIpcRTMb0vb1HOLecxoWP5AIObIPyIhE63EJEVxJTS3GF6
exoHqQMGS2wT0saYfU9DNwnHX/Mtm+t1Ihfw64tpzciaGTZ8fd8USuSUBsr4HxfA
fqoW4qEcdpjJqHH6eJy5BExZCEWAA6pdv+WJHLQ3VQjGAMci3Rd01pkjMhXCwZcE
EwEKAEECGwMFCwkIBwMFFQoJCAsFFgIDAQACHgECF4ACGQEWIQRxaWBfYsdRNW0F
SiaoIeaA5fpjBQUCYOBlAQUJFUZECwAKCRCoIeaA5fpjBb8KD/0fOAKUbUcTKYnc
8FACfwg7OYVcaKrLuHaRlKIOnxBcx3R5i3i/41tw9WZvCqsrWwUYaDI7SQAWMKn+
hjIhGMO7eCZLYQ3hSjgJUFA8gnt8VPkBs6ARibVJXWZpRU+URoVeXQs76qrC27US
7/IoM5jzODeKlxjgYtPkixW+EiSJWbo2Cut1F9aXGxY8qdFfQvEpJaMXlSyALQXd
2wiyaxMn936FV5LX3I4x6UuryQx5n5GslecIylalwixZ/QPFkTDHgy5VldH4MEeS
xZ2bu1K2wh2HorrPu5UsFHqBaO7yMJmZMSrbw8/mdEtk4KX2KTIV8JxWkpWIEXA5
jucO89fSkXTByKCOK08ZOkPXOqAhTcPdNJCkcOVgdyb8jzoR3MgVUAbniZYTC/Yx
Hbs8teZ9YJTT1FtP99taNFcDll6BmEjqIXQxdnHFEZJh3E9fgVwm8TwR6xvLS64p
waDJQJu2V3oW9hympuGEKmiTVZ5NtoDhbuMtLNcV2z3oPYoSDbT97KI785HUjTjE
kOVNeb9glGT/XhqOi32zfJi0IKTxCTLs/ygb7KP9DVDD4ni1liFrwnQtLVW8dV7n
VOciQ24Uf7PRuxhvSlU3GE90hbyT4+5ZCE6+EAEkB5XH63VDHwgL9xjoAkdW798n
OJ+m/U4BjQs299Sof6N9LH+CKe+hb8LBlwQTAQoAKgIbAwUJCWYBgAULCQgHAwUV
CgkICwUWAgMBAAIeAQIXgAUCVQA/wAIZAQAhCRCoIeaA5fpjBRYhBHFpYF9ix1E1
bQVKJqgh5oDl+mMFfOcQAJCDoCiYufb/35jLOTPsm71mjUH4LIGweGvuOHrwig7C
9FZZ7HhRDsoRsb2Jr1BqikfL0gwzFavJ3COn5wCzbpGv0aSqZXDygYjxLo3/VXKN
0u+2P2Mxx6LOGzNj09DE1q7EgNf/VE84ix1yFo98uO0ihiSZ58B5A8hFwmzdjK7W
YxPsAaGrykIvRU+5c3N2AjcpW1OLbCjpJoq6caG5rqlUrPdJ2Nq3Vd/jZui+WA6H
leza8fpUVriJ/6JYh0d8oaAGZja2dcodaNCFQGaSTMww3Tuv6iHpyJQH9L2vhphf
5KW7HL3tdc784J14dPctFNaCDg45Ziv4i3qHkD2jWeOKFVBEPgOm8nOj8D8gkyU1
NSoYKpRMXd8t1Yxudf5EM0xH1sUxwJE9PK5KONFWhcgG0KkbERm6lsdeYpJc9M8h
BQrwAmcLCzpsPlSB9Hx2CrEKJZbjT//NEOUKUSEQ1LbBtux8tG/yG8paoaYMvyLv
kV78nCRbWaIf3fgc0cKk9fgAuM1DiFVeyqFT1djWfn/GFxI78BzdxCv8PRTwMQ15
0XzSUUu544Z3u5ZeK0R3wC5SsqwMvuzLYcGH5fIBv51B4UICtFR5ZGlW5gs8a8nb
muQe63Zertjb9T3F7SbejWQIF81kXN/IZInzfDrH0gwjAgWJQ0AYLW4VAEHrExJ0
wsGUBBMBCgAnBQJVACJ2AhsDBQkJZgGABQsJCAcDBRUKCQgLBRYCAwEAAh4BAheA
ACEJEKgh5oDl+mMFFiEEcWlgX2LHUTVtBUomqCHmgOX6YwUvFw//XsTmAQFr8Ss8
ydj7zavSNnmurQMY6i2uOxh9K8hfRi8NzoFqosu5JOvwqWjYy55UdljvynHpULrr
Uo/n5pEElkdNNQn71lWs/5Glw0dBMpfvRevBhKeXZLurSdzUrkKQItg64zTmwDO8
4GP9wC2lm7D0PTT3DGlBd3uTBJEQEZyBnwBzuSo9s6iO2YGQcVYVSDlHH59Wy6Vx
CQRGzWPba3NO8/OyWMaautjujo/Qrh/NV95DHjewoqW1Cs01nAG2V4cP6NA8tOFV
/T1GGO2r/5xvbDCICqkeyR91jWeN4KHbViXnwg4wdDrHQxzqsXcDnCqstUnkZhUe
Xfe6dkspwBYOa1Xcw++e90Va8sM+qTKSjNTTx3WJ7JlcVaXBWJhpXOHtyOAgzyR4
Js+TTMW0ZmRVRLa6bffZeK+lfTYnwqpaE2yKKg79IAU6FLr7NH6ZmCGevl6oP1Ie
YIpMnUlaMbbDHaGJtpqzNBurKkFbWbCgYwOPgwb3WIpKfAyCOnc/zFAjIfL9dMAn
UMP0X//Yy1DZkrkyqJZNgueJTOKurwzUTysseHwx63nEg6rmIgNwyfQdMELCtZY8
7KpMXaVYrcbos6NOW1DTV8klogKlN7USKu32/6SvWI8sfX7Mh5ZnU7jr0j+fFGn9
Zbo5q/Nv1ZGDmAMEpna/6smNktxoQEXNJFRob21hcyBXb3V0ZXJzIDx0d291dGVy
c0Bnb29nbGUuY29tPsLBlAQTAQoAPgIbAwULCQgHAwUVCgkICwUWAgMBAAIeAQIX
gBYhBHFpYF9ix1E1bQVKJqgh5oDl+mMFBQJg4GUBBQkVRkQLAAoJEKgh5oDl+mMF
O/EQAJ/IS3ms3lAaZWBqEP/zeXuVCllTMtKrkych9GMLPnSx6H6haw655xrIdnv0
gNVKQXYvaQTWu6ZwHtQo97PSQdWtN2HeZAix8LNBkQyxZMNii2Vlus8+9PeUoYv4
7t9TfbWr0ZWi0kCyxhxAUgr0XaneOE3Zyg7OC6KRWVJziezCerYpEgngGlInd+TW
tYuvygnE3alKmyRi0d1TJTF9n586swcttb3glawtgNp3jCmvx60Gd5UBpQ9+mGFs
jB+FFeUe5Ot4O3CvcslgqnVWNSPMZVVPYJeRL0tsntozYFhr/UwnIfGSCW7w70sg
MYfZquVu2YEoxsJc9Jf/jYewalSBBhHAbh/7YJ8+Ph83HkYrws78QmNrDZCHnjZT
TfnpFFVmq43oTpJLpKd2V/2w7hwpT+m1Pwix9YopovC+vSXvWGAtGqp7etKlNXnh
wqkl9ggb5B/gOjr160kvGNhSzIKrO4WhzFlrQMaSoND5/VwPVt2DtPCyjTjU1kbr
L34TuQJ/eO0qSJgAcFj3TapmLwW+0ja0MCrCV8mN2IfmtS1hkAs7coZP6X2ncVNg
h0MPWJULjUJ4XqWgmTSBBmI2Ym3JjVNPI1LkKG2vx9JX3Ji6gHlehhiku7U0KSzg
LC9rW0TjlWEWuXyU9ozcQAE5X4l4dgdf8OCiglEjCClcIGbBwsGUBBMBCgAnBQJV
ADklAhsDBQkJZgGABQsJCAcDBRUKCQgLBRYCAwEAAh4BAheAACEJEKgh5oDl+mMF
FiEEcWlgX2LHUTVtBUomqCHmgOX6YwVWFhAAiUGk3Pv3ky5h3Up+P6jZZq499VGl
ckBIVYtZNntUQUMrsCbaXP+dlMGuhHAdI5M0/u7TtdxRX3eedteGef2taTETqYhN
AVqSGuwraAPFUX33FAyTUi3QPSbeybcRD3y5VSPwAb9ha/tdscUeduYInSoVhuty
2gUZapf8ka8sg2Tcy7ONZl3ZxjQNsFlpPJZyUg+lECmvdZ9TB7AP39DR7+hvFBYK
uXH3XFW8NZBT4oOMttijSRxVl7CgdKDIVE9t2FlkrASw+EwFWARbu4EUXHlfNvHb
F9oMqvkQfM/VVYY4Yd0uswbBp6xUC5fbQfjj18kAmQK/QRKqna+ESoHUohbqfeMp
Ct2Cs0JXzv/bk+eSy6X7zGI7WYSBlHtJQpi7YnzJFJnEtLmdFDkw0AWJZC6ziAto
acWODLTtV3+ldp95T3hVPHsHIN1fblsLMp5HXkNMKide2B7gdQrcE8m5jmXTkfbt
RqKUYiJ8TowyC9d9D8QExPde/KJnXiBvSGmFpiyBsKKbtXZXtcPPyAIhRXc53yyt
hsDjtW3g9urO98wiAnWizU6zAaw0k7MWryiAedUhQctbM/6OTamTf2F6k8LwoBRU
GGYv8pIp3mFyZ7TM84G7NfAvfIEL4ZdriEPnkLthe+1QlfrfULE/RTV+QEikTC1P
gwROhqRe37AU5Q3OwU0EVQAidgEQAOJaW1vFng6skRX36kM1VCuuOegpDOxXe+59
RXWNCsDXgJlC2HokNSqdjw88RTsqCTXvGkGswe4z6hrYdPiYBQjsRpZwLQT+w0Jd
jK2AC/gHCidHOXV3Pejm2esbXdNZ/YAKKLqaSSDWgNmhF/D+p4UBrvajc/MjAQtt
sNDGCWft/GVXlxnAQktwBoIHkTsDT8jUmZ1uUz1R4vknmuWwhOHqOVGCADKnE6MY
niN1eANnIkFfZwRESxdGwGnQ9RxHgm+sDIOofM+lSET4rZOOQ8O93ctcgujr4ZMh
kNchrjj8cFZxt8NAi0lJjEHqsjQLn5rTdsnqEjFe+CvZDqZMQs80rpVxoRIAl1hO
xFygtoPIujOAcGJtwGgRqnqPs+w4p331rPFtlL0FDeiUwHRlYDVH2nGGz/GEe3zj
tRHMyfxWBsaviZw1BUaSjbA6LsOmXkSNRIkE9xRCliN5njZkzwZiHFi6GBjWHZmn
m+KahwW+kn1eOR+EI08iIzR4lvy5KbiO6DaP7yJTRfDkMMlBbZJ1yMeewNFUnSPr
389XK53oP24NKswc+UqGGdF2VH75mCwKA2dPyi2qmdcdWfcIi23t4iupxNZo5ln+
6zn5lh7sR/4GwoVzAw3zjMIDmBVzVyJrDT1j191wNg64Ra5TVswPJMYvYVya4AH5
EXMf/OKFABEBAAHCwXwEGAEKACYCGwwWIQRxaWBfYsdRNW0FSiaoIeaA5fpjBQUC
anMseAUJHPfYAgAKCRCoIeaA5fpjBclcEACP8CGsrhPd2heZtZn4d8avw6QzpfEU
DbaqBzsaQOEfW//1JOYMDpAfbDbw7WstfBJhV+nQsKpihJi40ExcxaOuvPs8upBi
LwQOWcWI847K9864u48q8eOmpwEXnsdk3gS38REVJ71nRiBWYdx7pyPQaW8Qay89
SbQxudtaUkFhnP0gFQI3taZIcC3/HcvE3d7z+/JsPzVw/KWWrsaevhTPogUxUM3H
S36khe8MS/hRqW3no7UvbuS4C0TCwAcwUeH/F/2IsovXgVxp59bzIOp1J4mF8PlI
8CFUnE8SQSnK3lH403axqQAacBZ3SlwqU/p+add6WOQnYpBiF3HAhvkE9LgljaQb
I6yytlpnGHFcSViAL4ja/bhnqN85uG6U+9FjshCkU1eVBSH7ozLozJoA/i7vX4rz
kO9LqGauSi5TFyqRykD7K5R3CND+Lff2L3uUAmcNqhr6tUGKk7+DDv3ZIzk55jkY
r8Gh+4vrop4doYfd0p8NUra+FGct4scrrlZxVdsb1oNysQzizgyxO/F34ZpIPtFD
02bVa01w6ePMs1U+XSSXip4trdGLoJmzBpkhSFaVAuMjqPq512IAnE6rDduaEpiK
zsIUw8nfMGPh5TIfLxsw1fCxHLxJSu/I4QQHigA0fNkrNSONDfhtgPA6Uyth6Vaz
tGvK+bro1lBhIsLBfAQYAQoAJgIbDBYhBHFpYF9ix1E1bQVKJqgh5oDl+mMFBQJg
4GUPBQkVRkQZAAoJEKgh5oDl+mMFhIcP/j3tJamzKpJGJAwcsoneFtYfmZnLA4Uo
sffaPlsLGRVL1buyRuj2dFBr2WU4NAldYrQPK4T+ciSpfogJ9Dk8s1eUMhZi7gxK
meOHUDyefPXIp7v3PSG4xcnfXjyEK9zC714qFsI9ERjTg7uaw6qmFv8Xht8O8TLG
MgqDijQIgrH2oGd6tEdYyOOCOPQ7d6PBSm5Sw53LlCWlW5I9bc0NCjbnwWjh7Z9U
XtLffzZyxgxggSw0vfg5PuhcprZ2Rd3MwzJmALI2BB7eWW1x+M0hXmtdqj7Opmaj
h+UMrFjLtAlEZfslJwzV9NkAFxDYzRi2jvsmJx78vOPB1XhXgTvlEOvA7qEYDXFa
ZJHlBDmFU9JqytGZ6PtiQENuLHIe4hO6aHbhJA4I9EqoG1U1COQAwrsHreV6+fpc
Fn4lXbu+gWPyUzKiQMQd9kI3EEiayObUro21OFHS7z131kKbMec/oc2RfADCvEwY
8oay7o0S9aTqvPSQODs8nYkbZchNFoC+oF9n8pBMNzhYBsTk1OXleD1yMucsuywr
5i0meyvu6oQ4+pdPYD6wh7JatJh0hayKy33GGsXd278J1Ek1p6MEFnGLc/zH+NZZ
LIU7Qn1oFU+gK4cVeaLX2g0/BLKcQ/AEmYIwnecLr8A+Y4mZVwwsnSHtfELtoGSs
awN26bzKbnRswsF8BBgBCgAPBQJVACJ2AhsMBQkJZgGAACEJEKgh5oDl+mMFFiEE
cWlgX2LHUTVtBUomqCHmgOX6YwWmig//btmmoEripjYlrFVxwQ14fht4L1/H8429
+llS2JRIxemPzmYl4J+/o1TSa9bvhwwUf/HfKEKH7weL15p8x2CqcqAAcOKhZ7xN
n9JC9N5AU8NvEv4Iic1uRNG+C26gkf5eMyQ5abWLRfDhmOp0ituer3HLYRx5Q/NU
nqcfmgMShUUf3AgiIt9QDCKMPGTCJW+2oYNneEanG0cIqpgEwxZ/sfyIxr5C0h8O
ZgIIRV1T19k0bqgwckcbpav1efZJCgEgEYyEJrxR4mlbEiB5cmzBdyjrrWPy2HNy
ectdDPjPoqKzoRVnbTZUHxPTJIkwdXfYlt62nGJOGRPB/RDkItKFZADdCphZuPay
KIXMt0Oz1Jaa8A4voXYd0agaxmvazfgJLvXRmCB0bi/Sj97CR+GldGzhhF7nuMiI
6ebxnJoHCuJoT/2W1J6k3Iieul30J08EeMZV9q1f6dZdGs/XuNqlC28N2TMDC/HW
+0gWc0IB57DVvhwwVGkPvM17DdcZ3A9x6buYSI8beq+vUtLqQ1HbS1ylbniOURcY
OkqhDMJNLM6nS+3jf23ytlOsWUPt9DqnyUSKdpHNlmVADxcktYeb2VVutarClCw8
FFF/OldczFzmzKQ64Efr2AFevHM8CT0O0un7mUY2Lfl8ae2OAq41mo3/VFKPusSE
B4UIETrfp/U=
=yP1b
-----END PGP PUBLIC KEY BLOCK-----
